src/images/global/icons/social/youtube-line.svg

<?xml version="1.0" encoding="UTF-8"?>
<svg width="48px" height="48px" viewBox="0 0 48 48" version="1.1" xmlns="http://www.w3.org/2000/svg" xmlns:xlink="http://www.w3.org/1999/xlink">
    <!-- Generator: Sketch 46.2 (44496) - http://www.bohemiancoding.com/sketch -->
    <title>icon/Social/youtube-line</title>
    <desc>Created with Sketch.</desc>
    <defs>
        <path d="M16,0 C24.8366154,0 32,7.16338462 32,16 C32,24.8366154 24.8366154,32 16,32 C7.16338462,32 0,24.8366154 0,16 C0,7.16338462 7.16338462,0 16,0 Z M16,30.1538462 C23.8044615,30.1538462 30.1538462,23.8044615 30.1538462,16 C30.1538462,8.19553846 23.8044615,1.84615385 16,1.84615385 C8.19553846,1.84615385 1.84615385,8.19553846 1.84615385,16 C1.84615385,23.8044615 8.19553846,30.1538462 16,30.1538462 Z M24.6916923,10.153011 C25.2686154,10.7368571 25.4569231,12.0633187 25.4569231,12.0633187 C25.4569231,12.0633187 25.6489231,13.621011 25.6489231,15.1785495 L25.6489231,16.6388571 C25.6489231,18.1968571 25.4569231,19.7542418 25.4569231,19.7542418 C25.4569231,19.7542418 25.2686154,21.0805495 24.6916923,21.665011 C23.9595385,22.4317802 23.1390769,22.4354725 22.7630769,22.4802418 C20.0692308,22.6753187 16.0244615,22.6813187 16.0244615,22.6813187 C16.0244615,22.6813187 11.02,22.6356264 9.48,22.4880879 C9.05169231,22.4076264 8.08984615,22.4316264 7.35753846,21.6651648 C6.78046154,21.0807033 6.59246154,19.7543956 6.59246154,19.7543956 C6.59246154,19.7543956 6.4,18.197011 6.4,16.639011 L6.4,15.1787033 C6.4,13.621011 6.59246154,12.0633187 6.59246154,12.0633187 C6.59246154,12.0633187 6.78046154,10.7368571 7.35753846,10.1528571 C8.08984615,9.38608791 8.90984615,9.3823956 9.28615385,9.33747253 C11.9796923,9.14285714 16.0203077,9.14285714 16.0203077,9.14285714 L16.0287692,9.14285714 C16.0287692,9.14285714 20.0692308,9.14285714 22.7630769,9.33762637 C23.1390769,9.38254945 23.9595385,9.38624176 24.6916923,10.153011 Z M14.0373846,18.4088571 L19.2375385,15.7143956 L14.0364615,13.0007033 L14.0373846,18.4088571 Z" id="path-1"></path>
    </defs>
    <g id="Symbols" stroke="none" stroke-width="1" fill="none" fill-rule="evenodd">
        <g id="icon/Social/youtube-line">
            <g id="Icon" transform="translate(8.000000, 8.000000)">
                <mask id="mask-2" fill="white">
                    <use xlink:href="#path-1"></use>
                </mask>
                <use id="Mask" fill="#384048" xlink:href="#path-1"></use>
                <g id="Color/Grayscale/Night-Sky" mask="url(#mask-2)" fill="#111111">
                    <g transform="translate(-8.000000, -8.000000)" id="Swatch">
                        <rect x="0" y="0" width="48" height="48"></rect>
                    </g>
                </g>
            </g>
        </g>
    </g>
</svg>

<?xml version="1.0" encoding="utf-8"?>
<!-- Generator: Adobe Illustrator 21.0.2, SVG Export Plug-In . SVG Version: 6.00 Build 0)  -->
<svg version="1.1" id="icon_x2F_Social_x2F_youtube-line-Layer_1" xmlns="http://www.w3.org/2000/svg" xmlns:xlink="http://www.w3.org/1999/xlink" x="0px" y="0px"
	 viewBox="0 0 48 48" style="enable-background:new 0 0 48 48;" xml:space="preserve">
<title>icon/Social/youtube-line</title>
<desc>Created with Sketch.</desc>
<g id="icon_x2F_Social_x2F_youtube-line-Symbols">
	<g id="icon_x2F_Social_x2F_youtube-line">
		<g id="icon_x2F_Social_x2F_youtube-line-Icon" transform="translate(8.000000, 8.000000)">
			<g id="icon_x2F_Social_x2F_youtube-line-Mask">
				<path id="icon_x2F_Social_x2F_youtube-line-path-1_1_" style="fill:#384048;" d="M16,0c8.8,0,16,7.2,16,16s-7.2,16-16,16S0,24.8,0,16S7.2,0,16,0z M16,30.2
					c7.8,0,14.2-6.3,14.2-14.2S23.8,1.8,16,1.8S1.8,8.2,1.8,16S8.2,30.2,16,30.2z M24.7,10.2c0.6,0.6,0.8,1.9,0.8,1.9
					s0.2,1.6,0.2,3.1v1.5c0,1.6-0.2,3.1-0.2,3.1s-0.2,1.3-0.8,1.9c-0.7,0.8-1.6,0.8-1.9,0.8c-2.7,0.2-6.7,0.2-6.7,0.2s-5,0-6.5-0.2
					c-0.4-0.1-1.4-0.1-2.1-0.8c-0.6-0.6-0.8-1.9-0.8-1.9s-0.2-1.6-0.2-3.1v-1.5c0-1.6,0.2-3.1,0.2-3.1s0.2-1.3,0.8-1.9
					c0.7-0.8,1.6-0.8,1.9-0.8C12,9.1,16,9.1,16,9.1h0c0,0,4,0,6.7,0.2C23.1,9.4,24,9.4,24.7,10.2z M14,18.4l5.2-2.7L14,13L14,18.4z"
					/>
			</g>
			<defs>
				<filter id="icon_x2F_Social_x2F_youtube-line-Adobe_OpacityMaskFilter" filterUnits="userSpaceOnUse" x="-8" y="-8" width="48" height="48">
					<feColorMatrix  type="matrix" values="1 0 0 0 0  0 1 0 0 0  0 0 1 0 0  0 0 0 1 0"/>
				</filter>
			</defs>
			<mask maskUnits="userSpaceOnUse" x="-8" y="-8" width="48" height="48" id="icon_x2F_Social_x2F_youtube-line-mask-2">
				<g style="filter:url(#icon_x2F_Social_x2F_youtube-line-Adobe_OpacityMaskFilter);">
					<path id="icon_x2F_Social_x2F_youtube-line-path-1" style="fill:#FFFFFF;" d="M16,0c8.8,0,16,7.2,16,16s-7.2,16-16,16S0,24.8,0,16S7.2,0,16,0z M16,30.2
						c7.8,0,14.2-6.3,14.2-14.2S23.8,1.8,16,1.8S1.8,8.2,1.8,16S8.2,30.2,16,30.2z M24.7,10.2c0.6,0.6,0.8,1.9,0.8,1.9
						s0.2,1.6,0.2,3.1v1.5c0,1.6-0.2,3.1-0.2,3.1s-0.2,1.3-0.8,1.9c-0.7,0.8-1.6,0.8-1.9,0.8c-2.7,0.2-6.7,0.2-6.7,0.2s-5,0-6.5-0.2
						c-0.4-0.1-1.4-0.1-2.1-0.8c-0.6-0.6-0.8-1.9-0.8-1.9s-0.2-1.6-0.2-3.1v-1.5c0-1.6,0.2-3.1,0.2-3.1s0.2-1.3,0.8-1.9
						c0.7-0.8,1.6-0.8,1.9-0.8C12,9.1,16,9.1,16,9.1h0c0,0,4,0,6.7,0.2C23.1,9.4,24,9.4,24.7,10.2z M14,18.4l5.2-2.7L14,13L14,18.4z
						"/>
				</g>
			</mask>
			<g id="icon_x2F_Social_x2F_youtube-line-Color_x2F_Grayscale_x2F_Night-Sky" style="mask:url(#icon_x2F_Social_x2F_youtube-line-mask-2);">
				<g id="icon_x2F_Social_x2F_youtube-line-Swatch" transform="translate(-8.000000, -8.000000)">
					<rect style="fill:#111111;" width="48" height="48"/>
				</g>
			</g>
		</g>
	</g>
</g>
</svg>
